remix/System/download-line.svg

<svg viewBox="0 0 24 24" fill="currentColor" xmlns="http://www.w3.org/2000/svg"><path d="M3 19H21V21H3V19ZM13 13.1716L19.0711 7.1005L20.4853 8.51472L12 17L3.51472 8.51472L4.92893 7.1005L11 13.1716V2H13V13.1716Z"/></svg>

<svg viewBox="0 0 24 24" xmlns="http://www.w3.org/2000/svg"><path fill="none" d="M0 0h24v24H0Z"/><path d="M3 19h18v2H3v-2Zm10-5.83l6.07-6.08 1.41 1.41 -8.49 8.486L3.5 8.5l1.41-1.42 6.071 6.07V1.98h2V13.15Z"/></svg>
